!!!ONB: MCCC : ILB0168_03 : Extracted Monophonic Melody
!!!COM: Beethoven, Ludwig van
!!!OPR: Piano Sonata No.7
!!!OMV: 3
!!!SCT: Op.10 No.3
!!!ODT: 1797///
**kern
*thru
*staff1
*Ipiano
*>A
*clefG2
*k[f#c#]
*D:
*M3/4
*MM132
4a[
=1
4a]
4ff#
4ee
=2
4dd
4cc#
4ee
=3
2.dd[
=4
4dd]
4a
4b
=5
4a
4g
4a
=6
4g
4f#
4g
=7
2.f#
=8
4e
4r
4b[
=9
4b]
4gg
4ff#
=10
4ee
4dd#
4ff#
=11
2.ee[
=12
4ee]
4b
4cc#
=13
4cc#
4dd
4a
=14
4a
4g
4e
=15
2.e
=16
4d
4r
*>A
*M3/4
4a[
=17
4a]
4ff#
4ee
=18
4dd
4cc#
4ee
=19
2.dd[
=20
4dd]
4a
4b
=21
4a
4g
4a
=22
4g
4f#
4g
=23
2.f#
=24
4e
4r
4b[
=25
4b]
4gg
4ff#
=26
4ee
4dd#
4ff#
=27
2.ee[
=28
4ee]
4b
4cc#
=29
4cc#
4dd
4a
=30
4a
4g
4e
=31
2.e
=32
4d
4r
*>B
4r
=33
2.r
=34
2.r
=35
2.r
=36
4r
4r
4r
=37
2ee
8dd#
8ee
=38
8ff#
8ee
8dd
8cc#
8b
8ee
=39
4cc#
4aa
4aa
=40
4aa
4aa
4aa
=41
2.aa
=42
[2.aa
=43
2.aa_
=44
4aa]
4aa#
4bb
=45
4aa
4gg
4aa
=46
4gg
4ff#
4gg
=47
[2ff#
4ff#]
=48
4r
4r
4b[
=49
4b]
4gg
4ff#
=50
4ee
4dd#
4ff#
=51
4dd
4bb
4aa
=52
4gg
4ff#
4aa
=53
2gg
4ddd[
=54
4ddd]
4ccc#
4eee
=55
4ddd
4ccc#
4bb
=56
4aa
4gg
4ff#
=57
4ee
4dd#
4dd
=58
4b
4a
4a
=59
2a
4r
=60
2.r
=61
4r
4r
4a
=62
4a
4b
4a
=63
2a
4r
=64
2.r
=65
4r
4r
4a
=66
4a
4b-
4a
=67
4a
4g#
4a
=68
4a
4b
4a
=69
2.a[
=70
4a]
4r
*>B
4r
=71
2.r
=72
2.r
=73
2.r
=74
4r
4r
4r
=75
2ee
8dd#
8ee
=76
8ff#
8ee
8dd
8cc#
8b
8ee
=77
4cc#
4aa
4aa
=78
4aa
4aa
4aa
=79
2.aa
=80
[2.aa
=81
2.aa_
=82
4aa]
4aa#
4bb
=83
4aa
4gg
4aa
=84
4gg
4ff#
4gg
=85
[2ff#
4ff#]
=86
4r
4r
4b[
=87
4b]
4gg
4ff#
=88
4ee
4dd#
4ff#
=89
4dd
4bb
4aa
=90
4gg
4ff#
4aa
=91
2gg
4ddd[
=92
4ddd]
4ccc#
4eee
=93
4ddd
4ccc#
4bb
=94
4aa
4gg
4ff#
=95
4ee
4dd#
4dd
=96
4b
4a
4a
=97
2a
4r
=98
2.r
=99
4r
4r
4a
=100
4a
4b
4a
=101
2a
4r
=102
2.r
=103
4r
4r
4a
=104
4a
4b-
4a
=105
4a
4g#
4a
=106
4a
4b
4a
=107
2.a[
=108
4a]
4r
*>C
*k[f#]
12G
12B
12d
=109
12G
12B
12d
12G
12B
12d
12G
12B
12d
=110
12G
12B
12d
12G
12B
12d
12G
12B
12d
=111
12A
12c
12d
12A
12c
12d
12A
12c
12d
=112
12A
12c
12d
12A
12c
12d
12A
12c
12d
=113
12F#
12A
12d
12F#
12A
12d
12F#
12A
12d
=114
12F#
12A
12d
12F#
12A
12d
12F#
12A
12d
=115
12G
12B
12d
12G
12B
12d
12G
12B
12d
=116
12G
12B
12d
12G
12B
12d
12F#
12B
12d#
=117
12F#
12B
12d#
12F#
12B
12d#
12F#
12B
12d#
=118
12F#
12B
12d#
12F#
12B
12d#
12G
12B
12e
=119
12G
12B
12e
12G
12B
12e
12G
12B
12e
=120
12G
12B
12e
12G
12B
12e
12G
12c#
12e
=121
12g
12cc#
12ee
8gg
8ff#
8ee
8dd
=122
8cc#
8b
8a
8g
8f#
8e
=123
8d
8a
8g
8f#
8e
8d
=124
8c
8e
8d
8c
8B
8A
=125
12G
12B
12d
12G
12B
12d
12G
12B
12d
=126
12G
12B
12d
12G
12B
12d
12G
12B
12d
=127
12A
12c
12d
12A
12c
12d
12A
12c
12d
=128
12A
12c
12d
12A
12c
12d
12A
12c
12d
=129
12F#
12A
12d
12F#
12A
12d
12F#
12A
12d
=130
12F#
12A
12d
12F#
12A
12d
12F#
12A
12d
=131
12G
12B
12d
12G
12B
12d
12G
12B
12d
=132
12G
12B
12d
12G
12B
12d
12F#
12B
12d#
=133
12F#
12B
12d#
12F#
12B
12d#
12F#
12B
12d#
=134
12F#
12B
12d#
12F#
12B
12d#
12G
12B
12e
=135
12G
12B
12e
12G
12B
12e
12G
12B
12e
=136
12G
12B
12e
12G
12B
12e
12G
12c#
12e
=137
12c#
12e
12g
12c#
12e
12g
12c#
12e
12g
=138
12c#
12e
12g
12c#
12e
12g
12c#
12e
12g
=139
12c#
12e
12g
4r
4r
=140
4r
4r
*>A
*k[f#c#]
4a[
=141
4a]
4ff#
4ee
=142
4dd
4cc#
4ee
=143
2.dd[
=144
4dd]
4a
4b
=145
4a
4g
4a
=146
4g
4f#
4g
=147
2.f#
=148
4e
4r
4b[
=149
4b]
4gg
4ff#
=150
4ee
4dd#
4ff#
=151
2.ee[
=152
4ee]
4b
4cc#
=153
4cc#
4dd
4a
=154
4a
4g
4e
=155
2.e
=156
4d
4r
*>B
4r
=157
2.r
=158
2.r
=159
2.r
=160
4r
4r
4r
=161
2ee
8dd#
8ee
=162
8ff#
8ee
8dd
8cc#
8b
8ee
=163
4cc#
4aa
4aa
=164
4aa
4aa
4aa
=165
2.aa
=166
[2.aa
=167
2.aa_
=168
4aa]
4aa#
4bb
=169
4aa
4gg
4aa
=170
4gg
4ff#
4gg
=171
[2ff#
4ff#]
=172
4r
4r
4b[
=173
4b]
4gg
4ff#
=174
4ee
4dd#
4ff#
=175
4dd
4bb
4aa
=176
4gg
4ff#
4aa
=177
2gg
4ddd[
=178
4ddd]
4ccc#
4eee
=179
4ddd
4ccc#
4bb
=180
4aa
4gg
4ff#
=181
4ee
4dd#
4dd
=182
4b
4a
4a
=183
2a
4r
=184
2.r
=185
4r
4r
4a
=186
4a
4b
4a
=187
2a
4r
=188
2.r
=189
4r
4r
4a
=190
4a
4b-
4a
=191
4a
4g#
4a
=192
4a
4b
4a
=193
2.a[
=194
4a]
4r
==
*-
